assets/img/braze_icons/life-buoy-02.svg

<svg fill="none" height="24" viewBox="0 0 24 24" width="24" xmlns="http://www.w3.org/2000/svg"><g fill="#801ed7"><path d="m12 1c-2.04931 0-3.96772.5604-5.61037 1.53631-.44319.2633-.66479.39496-.79624.64219-.10496.1974-.14154.48936-.08854.70655.06639.27202.27584.48148.69475.90038l2.11832 2.11833c.31386.31386.47079.47079.6216.5442.16532.08048.24394.09901.4278.10083.16772.00166.46085-.09628 1.04708-.29216.4983-.16646 1.0314-.25663 1.5856-.25663s1.0874.09018 1.5857.25666c.5862.1959.8794.29385 1.0471.2922.1839-.00182.2625-.02035.4278-.10083.1508-.07342.3078-.23035.6216-.54422l2.1183-2.1183c.4189-.4189.6284-.62835.6948-.90038.053-.21719.0164-.50914-.0886-.70654-.1314-.24723-.353-.37889-.7962-.6422-1.6427-.97596-3.5611-1.53639-5.6105-1.53639z"/><path d="m17.0962 15.6821c-.3138-.3139-.4707-.4708-.5442-.6216-.0804-.1653-.099-.244-.1008-.4278-.0017-.1677.0963-.4609.2922-1.0471.1664-.4983.2566-1.0314.2566-1.5856 0-.5541-.0901-1.0872-.2566-1.5854-.1958-.58626-.2938-.87938-.2921-1.04709.0018-.18386.0204-.26248.1008-.42779.0734-.1508.2304-.30773.5442-.62158l2.1184-2.11835c.4189-.41892.6284-.62837.9004-.69476.2172-.053.5091-.01641.7065.08855.2473.13146.3789.35306.6422.79626.9759 1.6426 1.5362 3.56094 1.5362 5.61016 0 2.0493-.5604 3.9677-1.5363 5.6104-.2633.4432-.395.6648-.6422.7962-.1974.105-.4894.1416-.7065.0885-.2721-.0663-.4815-.2758-.9004-.6947z"/><path d="m8.31814 17.0963c.31385-.3138.47078-.4708.62158-.5442.16531-.0804.24393-.099.42779-.1008.16771-.0017.46083.0963 1.04709.2921.4982.1665 1.0313.2566 1.5854.2566.5542 0 1.0873-.0902 1.5855-.2566.5863-.1959.8794-.2938 1.0471-.2922.1839.0019.2625.0204.4278.1009.1508.0734.3077.2303.6216.5442l2.1183 2.1183c.4189.4189.6284.6284.6948.9004.053.2172.0164.5091-.0886.7065-.1314.2473-.353.3789-.7962.6422-1.6426.9759-3.561 1.5363-5.6103 1.5363-2.04922 0-3.96756-.5603-5.61016-1.5362-.4432-.2633-.6648-.3949-.79626-.6422-.10496-.1974-.14155-.4893-.08855-.7065.06639-.272.27584-.4815.69476-.9004z"/><path d="m6.90373 8.31799c.31386.31386.47079.47079.5442.62159.08048.16532.09901.24394.10083.4278.00166.16772-.09627.46085-.29215 1.04712-.16645.4982-.25661 1.0313-.25661 1.5855s.09018 1.0874.25666 1.5857c.1959.5862.29386.8794.2922 1.0471-.00182.1839-.02035.2625-.10083.4278-.07342.1508-.23035.3078-.54422.6216l-2.1183 2.1183c-.4189.4189-.62835.6284-.90038.6948-.21719.053-.50914.0164-.70654-.0886-.24723-.1314-.37889-.353-.6422-.7962-.97596-1.6427-1.53639-3.5611-1.53639-5.6105 0-2.04928.56038-3.96767 1.53627-5.6103.2633-.44319.39495-.66479.64219-.79625.19739-.10495.48935-.14154.70655-.08854.27202.06639.48148.27584.90039.69475z"/></g></svg>

<svg width="24" height="24" viewBox="0 0 24 24" fill="none" xmlns="http://www.w3.org/2000/svg">
<path d="M12 1C9.95069 1 8.03228 1.5604 6.38963 2.53631C5.94644 2.79961 5.72484 2.93127 5.59339 3.1785C5.48843 3.3759 5.45185 3.66786 5.50485 3.88505C5.57124 4.15707 5.78069 4.36653 6.1996 4.78543L8.31792 6.90376C8.63178 7.21762 8.78871 7.37455 8.93952 7.44796C9.10484 7.52844 9.18346 7.54697 9.36732 7.54879C9.53504 7.55045 9.82817 7.45251 10.4144 7.25663C10.9127 7.09017 11.4458 7 12 7C12.5542 7 13.0874 7.09018 13.5857 7.25666C14.1719 7.45256 14.4651 7.55051 14.6328 7.54886C14.8167 7.54704 14.8953 7.52851 15.0606 7.44803C15.2114 7.37461 15.3684 7.21768 15.6822 6.90381L17.8005 4.78551C18.2194 4.36661 18.4289 4.15716 18.4953 3.88513C18.5483 3.66794 18.5117 3.37599 18.4067 3.17859C18.2753 2.93136 18.0537 2.7997 17.6105 2.53639C15.9678 1.56043 14.0494 1 12 1Z" fill="#801ED7"/>
<path d="M17.0962 15.6821C16.7824 15.3682 16.6255 15.2113 16.552 15.0605C16.4716 14.8952 16.453 14.8165 16.4512 14.6327C16.4495 14.465 16.5475 14.1718 16.7434 13.5856C16.9098 13.0873 17 12.5542 17 12C17 11.4459 16.9099 10.9128 16.7434 10.4146C16.5476 9.82834 16.4496 9.53522 16.4513 9.36751C16.4531 9.18365 16.4717 9.10503 16.5521 8.93972C16.6255 8.78892 16.7825 8.63199 17.0963 8.31814L19.2147 6.19979C19.6336 5.78087 19.8431 5.57142 20.1151 5.50503C20.3323 5.45203 20.6242 5.48862 20.8216 5.59358C21.0689 5.72504 21.2005 5.94664 21.4638 6.38984C22.4397 8.03244 23 9.95078 23 12C23 14.0493 22.4396 15.9677 21.4637 17.6104C21.2004 18.0536 21.0687 18.2752 20.8215 18.4066C20.6241 18.5116 20.3321 18.5482 20.115 18.4951C19.8429 18.4288 19.6335 18.2193 19.2146 17.8004L17.0962 15.6821Z" fill="#801ED7"/>
<path d="M8.31814 17.0963C8.63199 16.7825 8.78892 16.6255 8.93972 16.5521C9.10503 16.4717 9.18365 16.4531 9.36751 16.4513C9.53522 16.4496 9.82834 16.5476 10.4146 16.7434C10.9128 16.9099 11.4459 17 12 17C12.5542 17 13.0873 16.9098 13.5855 16.7434C14.1718 16.5475 14.4649 16.4496 14.6326 16.4512C14.8165 16.4531 14.8951 16.4716 15.0604 16.5521C15.2112 16.6255 15.3681 16.7824 15.682 17.0963L17.8003 19.2146C18.2192 19.6335 18.4287 19.843 18.4951 20.115C18.5481 20.3322 18.5115 20.6241 18.4065 20.8215C18.2751 21.0688 18.0535 21.2004 17.6103 21.4637C15.9677 22.4396 14.0493 23 12 23C9.95078 23 8.03244 22.4397 6.38984 21.4638C5.94664 21.2005 5.72504 21.0689 5.59358 20.8216C5.48862 20.6242 5.45203 20.3323 5.50503 20.1151C5.57142 19.8431 5.78087 19.6336 6.19979 19.2147L8.31814 17.0963Z" fill="#801ED7"/>
<path d="M6.90373 8.31799C7.21759 8.63185 7.37452 8.78878 7.44793 8.93958C7.52841 9.1049 7.54694 9.18352 7.54876 9.36738C7.55042 9.5351 7.45249 9.82823 7.25661 10.4145C7.09016 10.9127 7 11.4458 7 12C7 12.5542 7.09018 13.0874 7.25666 13.5857C7.45256 14.1719 7.55052 14.4651 7.54886 14.6328C7.54704 14.8167 7.52851 14.8953 7.44803 15.0606C7.37461 15.2114 7.21768 15.3684 6.90381 15.6822L4.78551 17.8005C4.36661 18.2194 4.15716 18.4289 3.88513 18.4953C3.66794 18.5483 3.37599 18.5117 3.17859 18.4067C2.93136 18.2753 2.7997 18.0537 2.53639 17.6105C1.56043 15.9678 1 14.0494 1 12C1 9.95072 1.56038 8.03233 2.53627 6.3897C2.79957 5.94651 2.93122 5.72491 3.17846 5.59345C3.37585 5.4885 3.66781 5.45191 3.88501 5.50491C4.15703 5.5713 4.36649 5.78075 4.7854 6.19966L6.90373 8.31799Z" fill="#801ED7"/>
</svg>
